storage/app/icons/phosphoricons/thin/synagogue-thin.svg

<svg xmlns="http://www.w3.org/2000/svg" fill="currentColor" viewBox="0 0 256 256"><path d="M204 60.4V32a4 4 0 0 0-8 0v28.4A20 20 0 0 0 180 80v49.11l-48-27.43V72a4 4 0 0 0-8 0v29.68l-48 27.43V80a20 20 0 0 0-16-19.6V32a4 4 0 0 0-8 0v28.4A20 20 0 0 0 36 80v136a4 4 0 0 0 4 4h72a4 4 0 0 0 4-4v-40a12 12 0 0 1 24 0v40a4 4 0 0 0 4 4h72a4 4 0 0 0 4-4V80a20 20 0 0 0-16-19.6m-4 7.6a12 12 0 0 1 12 12v28h-24V80a12 12 0 0 1 12-12M56 68a12 12 0 0 1 12 12v28H44V80a12 12 0 0 1 12-12m-12 48h24v96H44Zm84 40a20 20 0 0 0-20 20v36H76v-73.68l52-29.71 52 29.71V212h-32v-36a20 20 0 0 0-20-20m60 56v-96h24v96Z"/></svg>

<svg xmlns="http://www.w3.org/2000/svg" viewBox="0 0 256 256" fill="currentColor"><path d="M204,60.4V32a4,4,0,0,0-8,0V60.4A20,20,0,0,0,180,80v49.11l-48-27.43V72a4,4,0,0,0-8,0v29.68L76,129.11V80A20,20,0,0,0,60,60.4V32a4,4,0,0,0-8,0V60.4A20,20,0,0,0,36,80V216a4,4,0,0,0,4,4h72a4,4,0,0,0,4-4V176a12,12,0,0,1,24,0v40a4,4,0,0,0,4,4h72a4,4,0,0,0,4-4V80A20,20,0,0,0,204,60.4ZM200,68a12,12,0,0,1,12,12v28H188V80A12,12,0,0,1,200,68ZM56,68A12,12,0,0,1,68,80v28H44V80A12,12,0,0,1,56,68ZM44,116H68v96H44Zm84,40a20,20,0,0,0-20,20v36H76V138.32l52-29.71,52,29.71V212H148V176A20,20,0,0,0,128,156Zm60,56V116h24v96Z"/></svg>
